lib/components/Logo/assets/LogoValue.svg

<svg width="157" height="16" viewBox="0 0 157 16" fill="none" xmlns="http://www.w3.org/2000/svg">
<path d="M20.0566 5.09731H15.4121V0.43457H30.2276V5.09731H25.5842V15.5696H20.0566V5.09731Z" fill="white"/>
<path d="M50 0.43457H56.0084L60.5114 7.56965V0.43457H65.8124V15.5696H59.804L55.3088 8.43457V15.5696H50V0.43457Z" fill="white"/>
<path d="M68 0.435547V15.5706H80.9939V11.4617H73.5287V9.84077H80.9939V6.1654H73.5287V4.5445H80.9939V0.435547H68Z" fill="white"/>
<path d="M48.0725 4.87714C47.6591 3.90325 47.07 3.05742 46.3029 2.33628C45.5358 1.61513 44.6074 1.04563 43.5164 0.627769C42.4255 0.209909 41.2019 0.000976562 39.8457 0.000976562C38.4895 0.000976562 37.2659 0.209909 36.175 0.627769C35.0841 1.04563 34.1556 1.61513 33.3886 2.33628C32.6215 3.05742 32.0323 3.90325 31.619 4.87714C31.2067 5.85102 31 6.8923 31 8.00098C31 9.10965 31.2067 10.1532 31.619 11.1248C32.0323 12.0987 32.6215 12.9457 33.3886 13.6657C34.1556 14.3868 35.0841 14.9552 36.175 15.3731C37.2671 15.792 38.4895 15.9999 39.8457 15.9999C41.2019 15.9999 42.4266 15.792 43.5164 15.3731C44.6074 14.9552 45.5358 14.3868 46.3029 13.6657C47.07 12.9445 47.6591 12.0976 48.0725 11.1248C48.4847 10.1521 48.6914 9.11078 48.6914 8.00098C48.6914 6.89118 48.4847 5.8499 48.0725 4.87714ZM39.8435 11.2203C38.033 11.2203 36.5641 9.78475 36.5641 8.01558C36.5641 6.24641 38.033 4.80974 39.8435 4.80974C41.654 4.80974 43.1218 6.24529 43.1218 8.01558C43.1218 9.78587 41.654 11.2203 39.8435 11.2203Z" fill="white"/>
<path d="M6.26263 4.93119C6.26263 4.93119 6.25821 4.92446 6.25711 4.92109C6.24826 4.90536 6.24163 4.88739 6.235 4.87166C6.22837 4.85706 6.22174 4.84134 6.21731 4.82673C6.21731 4.82449 6.21732 4.82224 6.2151 4.81999C6.19963 4.76832 6.18968 4.71553 6.18968 4.66161C6.18968 4.62005 6.19631 4.57849 6.20516 4.53805C6.23168 4.41449 6.30353 4.30104 6.41848 4.19657C6.4428 4.17523 6.46932 4.15277 6.49695 4.13142C6.50138 4.12693 6.5058 4.12244 6.51022 4.11907C6.51243 4.11907 6.51464 4.1157 6.51685 4.11457C6.80092 3.90677 7.24193 3.77197 7.73932 3.77197C9.46801 3.77197 9.40279 4.92783 9.40168 5.0952H14.8132C14.5778 4.15838 14.1644 3.3002 13.5753 2.55097C13.3244 2.23533 13.0193 1.92081 12.6579 1.61078C12.2965 1.30076 11.8687 1.02668 11.3746 0.788541C10.8806 0.551529 10.3136 0.360572 9.67248 0.216792C9.03141 0.0718891 8.31186 0 7.51604 0C6.35106 0 5.33086 0.137041 4.45326 0.411121C3.57565 0.685201 2.83952 1.04577 2.24155 1.49172C1.64469 1.9399 1.19594 2.44762 0.893083 3.016C0.590231 3.58551 0.439909 4.16512 0.439909 4.75709C0.439909 5.46363 0.56923 6.06908 0.827871 6.57344C1.08541 7.07891 1.42805 7.51025 1.8558 7.87082C2.28355 8.2314 2.76988 8.53019 3.3159 8.76832C3.86081 9.00533 4.41346 9.20753 4.97496 9.37377C5.53424 9.53889 6.08689 9.68717 6.63291 9.81635C7.17893 9.94665 7.66526 10.0769 8.09301 10.2061C8.51966 10.3353 8.86341 10.4802 9.12094 10.6386C9.37848 10.797 9.5089 10.9992 9.5089 11.244C9.5089 11.4597 9.32874 11.7046 9.10105 11.8652C8.76282 12.1022 8.23007 12.2584 7.62879 12.2584C5.66798 12.2584 5.44692 10.8015 5.44692 10.4858H0C0.235429 11.5237 0.66981 12.4471 1.30536 13.2536C1.56952 13.5995 1.8978 13.9388 2.28908 14.2701C2.68035 14.6015 3.14016 14.8936 3.67181 15.1452C4.20125 15.3979 4.81358 15.6024 5.50661 15.7619C6.19963 15.9202 6.97997 16 7.85095 16C9.05904 16 10.129 15.8551 11.0563 15.5675C11.9859 15.2788 12.7596 14.8969 13.3786 14.4218C13.9975 13.9455 14.4651 13.394 14.7823 12.7672C15.0984 12.1404 15.2576 11.4889 15.2576 10.8104C15.2576 5.77029 7.1115 6.50042 6.26374 4.92895" fill="white"/>
<path d="M99.9511 0.43457H101.052L95.0082 15.5674H93.7415L87.501 0.43457H89.8066L94.9054 12.8872H94.9883L99.9522 0.43457H99.9511ZM108.852 0.43457L115.789 15.5674H113.722L110.849 9.3141H105.101L102.477 15.5674H101.491L107.794 0.43457H108.853H108.852ZM110.406 8.34246L107.897 2.86086H107.814L105.507 8.34246H110.406ZM121.015 0.43457H119.084V15.5674H128.689V14.3745H121.015V0.43457ZM142.107 9.59492C142.107 9.91168 142.101 10.2318 142.086 10.5553C142.072 10.8788 142.029 11.2023 141.956 11.5258C141.883 11.8493 141.772 12.1695 141.623 12.4862C141.474 12.803 141.258 13.1198 140.974 13.4365C140.463 13.9993 139.888 14.3812 139.251 14.5812C138.614 14.7822 137.949 14.8822 137.257 14.8822C136.661 14.8822 136.134 14.789 135.673 14.6025C135.212 14.416 134.775 14.1363 134.36 13.7634C134.035 13.4747 133.788 13.1872 133.617 12.8985C133.447 12.6098 133.32 12.3256 133.233 12.0437C133.147 11.7628 133.096 11.4775 133.082 11.1889C133.069 10.9002 133.061 10.6126 133.061 10.3239V0.446925H131.131V9.74431C131.131 10.3352 131.188 10.9878 131.302 11.7022C131.417 12.4166 131.684 13.0793 132.106 13.6915C132.529 14.3037 133.159 14.8137 133.997 15.2214C134.834 15.6292 135.976 15.8336 137.423 15.8336C138.33 15.8336 139.135 15.691 139.837 15.4056C140.54 15.1203 141.128 14.7249 141.602 14.2183C142.076 13.7117 142.434 13.1254 142.676 12.457C142.919 11.7887 143.04 11.0709 143.04 10.3037V0.446925H142.105V9.59604L142.107 9.59492ZM157 1.62749V0.43457H147.395V15.5674H157V14.3745H149.326V8.04254H155.92V7.05069H149.326V1.62637H157V1.62749Z" fill="url(#paint0_linear_2650_16267)"/>
<defs>
<linearGradient id="paint0_linear_2650_16267" x1="86.2454" y1="-4.51011" x2="160.721" y2="18.5479" gradientUnits="userSpaceOnUse">
<stop stop-color="#B49266"/>
<stop offset="0.07" stop-color="#C2A678"/>
<stop offset="0.22" stop-color="#E7DBA8"/>
<stop offset="0.26" stop-color="#DBCB98"/>
<stop offset="0.38" stop-color="#BC9E6D"/>
<stop offset="0.5" stop-color="#E1C588"/>
<stop offset="0.56" stop-color="#D0B079"/>
<stop offset="0.62" stop-color="#C5A370"/>
<stop offset="0.67" stop-color="#D8BE88"/>
<stop offset="0.73" stop-color="#E6D29A"/>
<stop offset="0.76" stop-color="#EBD9A0"/>
<stop offset="0.91" stop-color="#D0BC9A"/>
<stop offset="0.99" stop-color="#C6B198"/>
</linearGradient>
</defs>
</svg>

<svg xmlns="http://www.w3.org/2000/svg" width="157" height="16" fill="none" viewBox="0 0 157 16"><path fill="#fff" d="M20.057 5.097h-4.645V.435h14.816v4.662h-4.644V15.57h-5.527zM50 .435h6.008l4.503 7.135V.435h5.301V15.57h-6.008l-4.495-7.135v7.135H50zM68 .436V15.57h12.994v-4.11h-7.465v-1.62h7.465V6.165h-7.465v-1.62h7.465V.434zM48.073 4.877a7.4 7.4 0 0 0-1.77-2.54q-1.15-1.082-2.787-1.71-1.636-.626-3.67-.626t-3.671.627-2.786 1.708a7.4 7.4 0 0 0-1.77 2.541A7.9 7.9 0 0 0 31 8.001q0 1.665.619 3.124a7.4 7.4 0 0 0 1.77 2.54q1.15 1.082 2.786 1.708 1.638.628 3.67.627 2.037 0 3.671-.627 1.637-.626 2.787-1.707a7.45 7.45 0 0 0 1.77-2.541A7.9 7.9 0 0 0 48.69 8q0-1.665-.619-3.124m-8.23 6.343c-1.81 0-3.279-1.435-3.279-3.204s1.469-3.206 3.28-3.206 3.278 1.435 3.278 3.206-1.468 3.204-3.279 3.204M6.263 4.931l-.006-.01q-.013-.025-.022-.05l-.018-.044q0-.004-.002-.007a.6.6 0 0 1-.025-.158q0-.063.015-.124a.65.65 0 0 1 .213-.341q.037-.033.079-.066l.013-.012.007-.004c.284-.208.725-.343 1.222-.343 1.729 0 1.664 1.156 1.663 1.323h5.411a6.74 6.74 0 0 0-1.238-2.544 7 7 0 0 0-.917-.94 5.9 5.9 0 0 0-1.283-.822A8 8 0 0 0 9.672.217 9.8 9.8 0 0 0 7.516 0Q5.769 0 4.453.411q-1.315.412-2.211 1.08-.895.673-1.349 1.525A3.67 3.67 0 0 0 .44 4.757q0 1.06.388 1.816.386.758 1.028 1.298t1.46.897q.817.356 1.659.606.84.248 1.658.442.819.195 1.46.39.64.195 1.028.433.387.237.388.605c0 .216-.18.46-.408.621-.338.237-.87.393-1.472.393-1.961 0-2.182-1.456-2.182-1.772H0a6.86 6.86 0 0 0 2.29 3.784q.585.498 1.382.875.795.378 1.835.617Q6.545 16 7.85 16q1.813 0 3.205-.432 1.395-.434 2.323-1.146.928-.715 1.403-1.655a4.3 4.3 0 0 0 .476-1.957c0-5.04-8.146-4.31-8.994-5.881"/><path fill="url(#a)" d="M99.951.435h1.101l-6.044 15.132h-1.266L87.5.435h2.306l5.098 12.452h.083L99.952.435m8.901 0 6.937 15.132h-2.067l-2.873-6.253h-5.748l-2.624 6.253h-.986L107.794.435zm1.554 7.907-2.509-5.481h-.083l-2.307 5.481zM121.015.435h-1.931v15.132h9.605v-1.193h-7.674zm21.092 9.16q0 .476-.021.96a5.5 5.5 0 0 1-.13.97 4.7 4.7 0 0 1-.333.961 4 4 0 0 1-.649.95q-.767.845-1.723 1.145a6.6 6.6 0 0 1-1.994.301q-.893 0-1.584-.28a4.5 4.5 0 0 1-1.313-.839 3.7 3.7 0 0 1-.743-.864 4 4 0 0 1-.384-.855 3.5 3.5 0 0 1-.151-.855 19 19 0 0 1-.021-.865V.447h-1.93v9.297q0 .887.171 1.958.172 1.072.804 1.99.634.918 1.891 1.53 1.256.611 3.426.612 1.36 0 2.414-.428a4.9 4.9 0 0 0 1.765-1.188 5.1 5.1 0 0 0 1.074-1.761 6.3 6.3 0 0 0 .364-2.153V.447h-.935v9.149zM157 1.627V.435h-9.605v15.132H157v-1.193h-7.674V8.043h6.594V7.05h-6.594V1.626z"/><defs><linearGradient id="a" x1="86.245" x2="160.721" y1="-4.51" y2="18.548" gradientUnits="userSpaceOnUse"><stop stop-color="#b49266"/><stop offset=".07" stop-color="#c2a678"/><stop offset=".22" stop-color="#e7dba8"/><stop offset=".26" stop-color="#dbcb98"/><stop offset=".38" stop-color="#bc9e6d"/><stop offset=".5" stop-color="#e1c588"/><stop offset=".56" stop-color="#d0b079"/><stop offset=".62" stop-color="#c5a370"/><stop offset=".67" stop-color="#d8be88"/><stop offset=".73" stop-color="#e6d29a"/><stop offset=".76" stop-color="#ebd9a0"/><stop offset=".91" stop-color="#d0bc9a"/><stop offset=".99" stop-color="#c6b198"/></linearGradient></defs></svg>
